assets/Woman factory worker/Medium-Light/Flat/woman_factory_worker_flat_medium-light.svg

<svg width="32" height="32" viewBox="0 0 32 32" fill="none" xmlns="http://www.w3.org/2000/svg">
<path d="M22.2 8.01H23.08C23.35 8.01 23.57 7.79 23.57 7.51V6.49C23.57 6.22 23.35 6 23.08 6H6.92002C6.64002 6 6.42002 6.22 6.43002 6.49V7.52C6.43002 7.79 6.65002 8.01 6.92002 8.01H7.96997V9.99996H22.2V8.01Z" fill="#321B41"/>
<path d="M22.1999 10.53C22.1999 9.84003 22.0099 9.19003 21.6799 8.66003C21.3499 8.12003 21.1799 7.49003 21.1799 6.84003V6.83003C21.1799 6.27003 21.0499 5.75003 20.8299 5.28003H9.30994C9.08994 5.74003 8.95994 6.27003 8.95994 6.83003V6.84003C8.95994 7.49003 8.78994 8.12003 8.45994 8.66003C8.12994 9.20003 7.93994 9.84003 7.93994 10.53C7.93994 11.06 8.04994 11.55 8.24994 12C8.31994 12.15 8.31994 12.32 8.24994 12.47C8.04994 12.91 7.93994 13.4 7.93994 13.92C7.93994 15.75 9.30994 17.23 10.9899 17.23H19.1299C20.8199 17.23 22.1799 15.75 22.1799 13.92C22.1799 13.4 22.0699 12.91 21.8699 12.47C21.7999 12.32 21.7999 12.15 21.8699 12C22.0799 11.55 22.1999 11.06 22.1999 10.53Z" fill="#FFF9BA"/>
<path d="M8 18.016C8.89275 17.2788 9.9037 16.6797 11 16.2513L15 16L19 16.248C20.0965 16.6756 21.1074 17.2742 22 18.0111L23.5 24L22 30H8L6.5 24L8 18.016Z" fill="#0084CE"/>
<path d="M15 19.35L11.88 21.54C11.51 21.8 11 21.54 11 21.08V16.2513C12.2415 15.7662 13.5924 15.5 15.005 15.5C16.4144 15.5 17.7617 15.765 19 16.248V21.08C19 21.54 18.49 21.8 18.12 21.54L15 19.35Z" fill="#0074BA"/>
<path d="M22 18.0111V30H26V26.5C26 23.0805 24.443 20.0279 22 18.0111Z" fill="#0074BA"/>
<path d="M8 30V18.016C5.55764 20.0328 4 23.0832 4 26.5V30H8Z" fill="#0074BA"/>
<path d="M15.8959 19.3457L15.2663 19.8997C15.1114 20.0334 14.8886 20.0334 14.7337 19.8997L14.1041 19.3457C13.4068 18.7248 13 17.8364 13 16.9099V13.9582C13.0097 12.8788 13.9007 12 15.0048 12C16.109 12 17 12.8788 17 13.9678V16.9194C16.9903 17.846 16.5932 18.7248 15.8959 19.3457Z" fill="#E6E6E6"/>
<path d="M15 18C13.8932 18 13 17.0345 13 15.8381V13.1514C13 11.9655 13.8932 11 15 11C16.1068 11 17 11.9655 17 13.1619V15.8486C16.9903 17.0345 16.0971 18 15 18Z" fill="#E4B29A"/>
<path d="M26 23C26.55 23 27 23.4103 27 23.9119V26H25V23.9119C25.01 23.4103 25.45 23 26 23Z" fill="#E4B29A"/>
<path d="M26.71 14.92L26 14.21L24.58 15.63C24.2 16.01 23.99 16.52 23.99 17.05V23.59H24.99V16.85C24.99 16.71 25.04 16.58 25.14 16.48L26.71 14.92Z" fill="#D3D3D3"/>
<path d="M27.76 15.04L28.23 13.24C28.31 12.92 28.02 12.63 27.7 12.71L25.89 13.18C25.87 13.19 25.84 13.19 25.82 13.2H25.81C25.55 13.28 25.3 13.42 25.1 13.64C24.54 14.24 24.56 15.19 25.13 15.78C25.74 16.4 26.73 16.41 27.34 15.79C27.56 15.57 27.69 15.31 27.76 15.04Z" fill="#50E2FF"/>
<path d="M26.1699 15.5999C26.6394 15.5999 27.0199 15.2193 27.0199 14.7499C27.0199 14.2805 26.6394 13.8999 26.1699 13.8999C25.7005 13.8999 25.3199 14.2805 25.3199 14.7499C25.3199 15.2193 25.7005 15.5999 26.1699 15.5999Z" fill="white"/>
<path d="M25.52 25.9398H23.47V22.9398C23.47 22.7498 23.63 22.5898 23.82 22.5898H25.17C25.36 22.5898 25.52 22.7498 25.52 22.9398V25.9398V25.9398Z" fill="#533566"/>
<path d="M22.5091 25.5C22.5182 25.1 22.837 24.75 23.2105 24.75H26.2075C26.6447 24.75 27 25.14 27 25.62V29.13C27 29.61 26.6447 30 26.2075 30H23.2105C22.837 30 22.5182 29.69 22.5091 29.28C22.5 29.01 22.6184 28.77 22.8097 28.63C22.6184 28.5 22.5 28.27 22.5 28.01C22.5 27.75 22.6275 27.52 22.8097 27.39C22.6184 27.26 22.5 27.03 22.5 26.77C22.5 26.51 22.6275 26.28 22.8097 26.15C22.6275 26.01 22.5 25.77 22.5091 25.5Z" fill="#EEBFAA"/>
<path d="M12 10.625C12 11.5225 11.2725 12.25 10.375 12.25C9.47754 12.25 8.75 11.5225 8.75 10.625C8.75 9.72754 9.47754 9 10.375 9C11.2725 9 12 9.72754 12 10.625Z" fill="#E4B29A"/>
<path d="M21.25 10.625C21.25 11.5225 20.5225 12.25 19.625 12.25C18.7275 12.25 18 11.5225 18 10.625C18 9.72754 18.7275 9 19.625 9C20.5225 9 21.25 9.72754 21.25 10.625Z" fill="#E4B29A"/>
<path d="M19.09 7.29135H15.82C14.53 7.29135 13.32 6.6617 12.58 5.609C12.46 5.44175 12.19 5.47127 12.11 5.66803L12.04 5.85496C11.8 6.41574 11.36 6.84863 10.82 7.09459C10.79 7.10443 10.75 7.1241 10.72 7.13394C10.48 7.252 9.92002 7.62586 9.90002 8.57033L10.03 11.7678C10.15 14.6012 12.37 16.5 15.07 16.5C17.77 16.5 19.99 14.6012 20.11 11.7678L20.24 8.72774C20.23 7.38974 19.27 7.30119 19.09 7.29135Z" fill="#EEBFAA"/>
<path d="M12.4 9.18994C12.98 9.18994 13.45 9.58994 13.75 10.0399C13.4698 10.1268 13.1989 10.2043 12.9306 10.281C12.5191 10.3987 12.1137 10.5147 11.69 10.6599L11.2 10.2199C10.99 10.0399 11.01 9.70994 11.23 9.54994C11.56 9.31994 11.99 9.18994 12.4 9.18994Z" fill="black"/>
<path d="M17.7801 9.18994C17.2001 9.18994 16.7201 9.58994 16.4301 10.0399C16.7203 10.1312 17.0037 10.2121 17.2859 10.2926C17.6843 10.4064 18.0803 10.5195 18.4901 10.6599L18.9801 10.2199C19.1901 10.0399 19.1701 9.70994 18.9501 9.54994C18.6201 9.31994 18.1901 9.18994 17.7801 9.18994Z" fill="black"/>
<path d="M11.19 10.3798C11.35 9.7598 11.91 9.2998 12.58 9.2998C13.28 9.2998 13.86 9.7898 13.99 10.4498C14.02 10.5998 13.91 10.7298 13.76 10.7298H11.47C11.28 10.7298 11.15 10.5598 11.19 10.3798Z" fill="white"/>
<path d="M18.98 10.3798C18.82 9.7598 18.26 9.2998 17.59 9.2998C16.89 9.2998 16.31 9.7898 16.18 10.4498C16.15 10.5998 16.26 10.7298 16.41 10.7298H18.7C18.89 10.7298 19.02 10.5598 18.98 10.3798Z" fill="white"/>
<path d="M11.87 10.4898C11.87 9.97982 12.28 9.56982 12.79 9.56982C13.3 9.56982 13.71 9.97982 13.71 10.4898C13.71 10.5698 13.7 10.6498 13.67 10.7298H11.9C11.88 10.6598 11.87 10.5698 11.87 10.4898Z" fill="#7D4533"/>
<path d="M18.3 10.4898C18.3 9.97982 17.89 9.56982 17.38 9.56982C16.87 9.56982 16.46 9.97982 16.47 10.4898C16.47 10.5698 16.48 10.6498 16.5 10.7298H18.27C18.29 10.6598 18.3 10.5698 18.3 10.4898Z" fill="#7D4533"/>
<path d="M12.8 9.96997C13.09 9.96997 13.32 10.2 13.32 10.49C13.32 10.57 13.3 10.66 13.27 10.73H12.34C12.3 10.66 12.28 10.58 12.28 10.49C12.28 10.2 12.51 9.96997 12.8 9.96997Z" fill="black"/>
<path d="M17.38 9.96997C17.09 9.96997 16.86 10.2 16.86 10.49C16.86 10.57 16.88 10.66 16.91 10.73H17.84C17.88 10.66 17.9 10.58 17.9 10.49C17.9 10.2 17.67 9.96997 17.38 9.96997Z" fill="black"/>
<path d="M12.6401 10.13C12.6401 10.2183 12.5684 10.29 12.4801 10.29C12.3917 10.29 12.3201 10.2183 12.3201 10.13C12.3201 10.0416 12.3917 9.96997 12.4801 9.96997C12.5684 9.96997 12.6401 10.0416 12.6401 10.13Z" fill="white"/>
<path d="M17.23 10.13C17.23 10.2183 17.1584 10.29 17.07 10.29C16.9817 10.29 16.91 10.2183 16.91 10.13C16.91 10.0416 16.9817 9.96997 17.07 9.96997C17.1584 9.96997 17.23 10.0416 17.23 10.13Z" fill="white"/>
<path d="M15.0699 13.5799C14.5399 13.5799 14.0399 13.4499 13.6099 13.2299C13.4699 13.1499 13.3099 13.3199 13.3999 13.4499C13.7499 13.9999 14.3699 14.3599 15.0699 14.3599C15.7699 14.3599 16.3799 13.9999 16.7399 13.4499C16.8299 13.3099 16.6799 13.1499 16.5299 13.2299C16.1099 13.4499 15.6099 13.5799 15.0699 13.5799Z" fill="#990838"/>
<path d="M14.6435 10.285L14.1492 11.965C14.0447 12.315 14.2918 12.655 14.634 12.655H15.366C15.7082 12.655 15.9553 12.305 15.8508 11.965L15.3565 10.285C15.2519 9.905 14.7576 9.905 14.6435 10.285Z" fill="#D19479"/>
<path d="M18.56 8.63006C18.61 8.66006 18.65 8.67006 18.7 8.67006C18.8 8.67006 18.89 8.62006 18.93 8.54006C19.01 8.40006 18.96 8.24006 18.83 8.16006C18.79 8.13006 17.91 7.63006 16.88 7.82006C16.73 7.85006 16.63 7.99006 16.66 8.14006C16.69 8.29006 16.83 8.39006 16.98 8.36006C17.7387 8.22295 18.4222 8.56211 18.5417 8.62139C18.5529 8.62696 18.56 8.63006 18.56 8.63006Z" fill="#A56953"/>
<path d="M11.2 8.53003C11.25 8.62003 11.34 8.67003 11.44 8.67003C11.49 8.67003 11.53 8.66003 11.58 8.64003C11.58 8.63003 12.33 8.21003 13.15 8.36003C13.3 8.39003 13.45 8.29003 13.47 8.14003C13.5 7.99003 13.4 7.85003 13.25 7.82003C12.2695 7.647 11.4092 8.10232 11.3085 8.15561C11.3044 8.15776 11.3 8.16003 11.3 8.16003C11.17 8.23003 11.12 8.40003 11.2 8.53003Z" fill="#A56953"/>
<path d="M21.56 4.66992H9.30005V7.31992H21.56V4.66992Z" fill="#321B41"/>
<path d="M7.97 10.0002C8.18 9.53021 9.95 5.94021 15 5.94021C20.6 5.94021 22.04 10.0002 22.04 10.0002H22.51C22.78 10.0002 22.99 9.78021 22.99 9.52021V6.28021C22.99 4.36623 21.7337 2.74824 20 2.20502L18.72 2.25016H11.27L10 2.19727C8.2611 2.73202 7 4.35256 7 6.27021V9.51021C7 9.78021 7.21 10.0002 7.48 10.0002H7.97Z" fill="#533566"/>
<path d="M20.97 7.60994C20.31 6.97994 19.53 6.47994 18.66 6.11994C17.57 5.66994 16.34 5.43994 15 5.43994C13.78 5.43994 12.64 5.63994 11.62 6.03994C10.78 6.36994 10.01 6.82994 9.33997 7.41994C8.17997 8.41994 7.64997 9.48994 7.50997 9.78994C7.47997 9.85994 7.46997 9.92994 7.46997 9.99994H7.47997H7.96997C8.17997 9.52994 9.94997 5.93994 15 5.93994C20.6 5.93994 22.04 9.99994 22.04 9.99994H22.51C22.52 9.99994 22.53 9.99994 22.54 9.99994C22.54 9.93994 22.53 9.88994 22.51 9.82994C22.5 9.77994 22.1 8.68994 20.97 7.60994Z" fill="#8D65C5"/>
<path d="M13.98 4.37L16.5 3.5L16.43 2H11.27C10.83 2 10.4 2.07 10 2.19V3.81C10 4.12 10.25 4.37 10.56 4.37H13.98Z" fill="#B4F6FC"/>
<path d="M16.43 2L13.98 4.37H19.43C19.74 4.37 20 4.12 20 3.81V2.19C19.6 2.07 19.16 2 18.72 2H16.43Z" fill="#26EAFC"/>
</svg>

<svg xmlns="http://www.w3.org/2000/svg" width="32" height="32" fill="none"><path fill="#321B41" d="M22.2 8.01h.88c.27 0 .49-.22.49-.5V6.49a.49.49 0 0 0-.49-.49H6.92c-.28 0-.5.22-.49.49v1.03c0 .27.22.49.49.49h1.05V10H22.2V8.01Z"/><path fill="#FFF9BA" d="M22.2 10.53c0-.69-.19-1.34-.52-1.87-.33-.54-.5-1.17-.5-1.82v-.01c0-.56-.13-1.08-.35-1.55H9.31a3.6 3.6 0 0 0-.35 1.55v.01c0 .65-.17 1.28-.5 1.82-.33.54-.52 1.18-.52 1.87 0 .53.11 1.02.31 1.47.07.15.07.32 0 .47-.2.44-.31.93-.31 1.45 0 1.83 1.37 3.31 3.05 3.31h8.14c1.69 0 3.05-1.48 3.05-3.31 0-.52-.11-1.01-.31-1.45a.552.552 0 0 1 0-.47c.21-.45.33-.94.33-1.47Z"/><path fill="#0084CE" d="M8 18.016a11.001 11.001 0 0 1 3-1.765L15 16l4 .248a10.979 10.979 0 0 1 3 1.763L23.5 24 22 30H8l-1.5-6L8 18.016Z"/><path fill="#0074BA" d="m15 19.35-3.12 2.19c-.37.26-.88 0-.88-.46v-4.829a10.981 10.981 0 0 1 4.005-.751c1.41 0 2.757.265 3.995.748v4.832c0 .46-.51.72-.88.46L15 19.35ZM22 18.011V30h4v-3.5c0-3.42-1.557-6.472-4-8.489ZM8 30V18.016A10.974 10.974 0 0 0 4 26.5V30h4Z"/><path fill="#E6E6E6" d="m15.896 19.346-.63.554a.404.404 0 0 1-.532 0l-.63-.554A3.274 3.274 0 0 1 13 16.91v-2.952c.01-1.08.9-1.958 2.005-1.958 1.104 0 1.995.879 1.995 1.968v2.951a3.289 3.289 0 0 1-1.104 2.427Z"/><path fill="#E4B29A" d="M15 18c-1.107 0-2-.965-2-2.162v-2.687c0-1.185.893-2.151 2-2.151s2 .966 2 2.162v2.687C16.99 17.035 16.097 18 15 18ZM26 23c.55 0 1 .41 1 .912V26h-2v-2.088c.01-.502.45-.912 1-.912Z"/><path fill="#D3D3D3" d="m26.71 14.92-.71-.71-1.42 1.42c-.38.38-.59.89-.59 1.42v6.54h1v-6.74c0-.14.05-.27.15-.37l1.57-1.56Z"/><path fill="#50E2FF" d="m27.76 15.04.47-1.8a.437.437 0 0 0-.53-.53l-1.81.47c-.02.01-.05.01-.07.02h-.01c-.26.08-.51.22-.71.44-.56.6-.54 1.55.03 2.14.61.62 1.6.63 2.21.01.22-.22.35-.48.42-.75Z"/><path fill="#fff" d="M26.17 15.6a.85.85 0 1 0 0-1.7.85.85 0 0 0 0 1.7Z"/><path fill="#533566" d="M25.52 25.94h-2.05v-3c0-.19.16-.35.35-.35h1.35c.19 0 .35.16.35.35v3Z"/><path fill="#EEBFAA" d="M22.51 25.5c.008-.4.327-.75.7-.75h2.997c.438 0 .793.39.793.87v3.51c0 .48-.355.87-.793.87H23.21c-.373 0-.692-.31-.7-.72-.01-.27.108-.51.3-.65a.74.74 0 0 1-.31-.62c0-.26.128-.49.31-.62a.74.74 0 0 1-.31-.62c0-.26.128-.49.31-.62a.79.79 0 0 1-.3-.65Z"/><path fill="#E4B29A" d="M12 10.625a1.625 1.625 0 1 1-3.25 0 1.625 1.625 0 0 1 3.25 0ZM21.25 10.625a1.625 1.625 0 1 1-3.25 0 1.625 1.625 0 0 1 3.25 0Z"/><path fill="#EEBFAA" d="M19.09 7.291h-3.27c-1.29 0-2.5-.63-3.24-1.682a.273.273 0 0 0-.47.059l-.07.187c-.24.56-.68.994-1.22 1.24-.03.01-.07.03-.1.039-.24.118-.8.492-.82 1.436l.13 3.198c.12 2.833 2.34 4.732 5.04 4.732s4.92-1.899 5.04-4.732l.13-3.04c-.01-1.338-.97-1.427-1.15-1.437Z"/><path fill="#000" d="M12.4 9.19c.58 0 1.05.4 1.35.85-.28.087-.551.164-.82.241a24.67 24.67 0 0 0-1.24.379l-.49-.44a.429.429 0 0 1 .03-.67c.33-.23.76-.36 1.17-.36ZM17.78 9.19c-.58 0-1.06.4-1.35.85.29.091.574.172.856.253.398.113.794.227 1.204.367l.49-.44c.21-.18.19-.51-.03-.67-.33-.23-.76-.36-1.17-.36Z"/><path fill="#fff" d="M11.19 10.38a1.437 1.437 0 0 1 2.8.07.23.23 0 0 1-.23.28h-2.29c-.19 0-.32-.17-.28-.35ZM18.98 10.38a1.437 1.437 0 0 0-2.8.07c-.03.15.08.28.23.28h2.29c.19 0 .32-.17.28-.35Z"/><path fill="#7D4533" d="M11.87 10.49c0-.51.41-.92.92-.92s.92.41.92.92c0 .08-.01.16-.04.24H11.9a.928.928 0 0 1-.03-.24ZM18.3 10.49c0-.51-.41-.92-.92-.92s-.92.41-.91.92c0 .08.01.16.03.24h1.77c.02-.07.03-.16.03-.24Z"/><path fill="#000" d="M12.8 9.97c.29 0 .52.23.52.52 0 .08-.02.17-.05.24h-.93a.516.516 0 0 1 .46-.76ZM17.38 9.97c-.29 0-.52.23-.52.52 0 .08.02.17.05.24h.93a.516.516 0 0 0-.46-.76Z"/><path fill="#fff" d="M12.64 10.13a.16.16 0 1 1-.32 0 .16.16 0 0 1 .32 0ZM17.23 10.13a.16.16 0 1 1-.32 0 .16.16 0 0 1 .32 0Z"/><path fill="#990838" d="M15.07 13.58c-.53 0-1.03-.13-1.46-.35-.14-.08-.3.09-.21.22a1.988 1.988 0 0 0 3.34 0c.09-.14-.06-.3-.21-.22-.42.22-.92.35-1.46.35Z"/><path fill="#D19479" d="m14.643 10.285-.494 1.68c-.104.35.143.69.485.69h.732c.342 0 .59-.35.485-.69l-.495-1.68c-.104-.38-.598-.38-.713 0Z"/><path fill="#A56953" d="M18.56 8.63c.05.03.09.04.14.04.1 0 .19-.05.23-.13.08-.14.03-.3-.1-.38-.04-.03-.92-.53-1.95-.34-.15.03-.25.17-.22.32s.17.25.32.22c.759-.137 1.442.202 1.562.261l.018.01ZM11.2 8.53c.05.09.14.14.24.14.05 0 .09-.01.14-.03 0-.01.75-.43 1.57-.28.15.03.3-.07.32-.22a.273.273 0 0 0-.22-.32c-.98-.173-1.84.282-1.941.336l-.009.004c-.13.07-.18.24-.1.37Z"/><path fill="#321B41" d="M21.56 4.67H9.3v2.65h12.26V4.67Z"/><path fill="#533566" d="M7.97 10c.21-.47 1.98-4.06 7.03-4.06 5.6 0 7.04 4.06 7.04 4.06h.47c.27 0 .48-.22.48-.48V6.28A4.27 4.27 0 0 0 20 2.205l-1.28.045h-7.45L10 2.197A4.258 4.258 0 0 0 7 6.27v3.24c0 .27.21.49.48.49h.49Z"/><path fill="#8D65C5" d="M20.97 7.61a7.456 7.456 0 0 0-2.31-1.49c-1.09-.45-2.32-.68-3.66-.68-1.22 0-2.36.2-3.38.6-.84.33-1.61.79-2.28 1.38-1.16 1-1.69 2.07-1.83 2.37-.03.07-.04.14-.04.21h.5c.21-.47 1.98-4.06 7.03-4.06 5.6 0 7.04 4.06 7.04 4.06h.5c0-.06-.01-.11-.03-.17-.01-.05-.41-1.14-1.54-2.22Z"/><path fill="#B4F6FC" d="m13.98 4.37 2.52-.87-.07-1.5h-5.16c-.44 0-.87.07-1.27.19v1.62c0 .31.25.56.56.56h3.42Z"/><path fill="#26EAFC" d="m16.43 2-2.45 2.37h5.45c.31 0 .57-.25.57-.56V2.19c-.4-.12-.84-.19-1.28-.19h-2.29Z"/></svg>
